report_00007_2020-12-11T15:55:29.892Z/total-byte-weight/comparison/histogram/7_vs_8.svg

<svg width="640" height="500" xmlns="http://www.w3.org/2000/svg" xmlns:xlink="http://www.w3.org/1999/xlink"><path fill="#fff" d="M0 0h640v500H0z"/><defs><path id="d" stroke-width=".222" stroke="currentColor" d="M-1-1h2v2h-2z"/><path id="b" stroke-width=".222" stroke="currentColor" d="M0-1.33l-1.33 2h2.66z"/><path id="f" stroke-width=".222" stroke="currentColor" d="M0 1.33L1.265.411.782-1.067l-1.564-.009-.483 1.487z"/><use xlink:href="#b" id="c" stroke="currentColor" transform="rotate(180)"/><use xlink:href="#d" id="e" stroke="currentColor" transform="rotate(45)"/><circle id="a" stroke-width=".222" stroke="currentColor" cx="0" cy="0" r="1"/></defs><g fill="none" color="#000" stroke="currentColor"><path stroke="#000" d="M53.9 428h9m552.1 0h-9"/><text transform="translate(45.6 431.9)" stroke="none" fill="#000" font-family="Arial" font-size="12" text-anchor="end"><tspan>0</tspan></text></g><g fill="none" color="#000" stroke="currentColor"><path stroke="#000" d="M53.9 346h9m552.1 0h-9"/><text transform="translate(45.6 349.9)" stroke="none" fill="#000" font-family="Arial" font-size="12" text-anchor="end"><tspan>20</tspan></text></g><g fill="none" color="#000" stroke="currentColor"><path stroke="#000" d="M53.9 264h9m552.1 0h-9"/><text transform="translate(45.6 267.9)" stroke="none" fill="#000" font-family="Arial" font-size="12" text-anchor="end"><tspan>40</tspan></text></g><g fill="none" color="#000" stroke="currentColor"><path stroke="#000" d="M53.9 182.1h9m552.1 0h-9"/><text transform="translate(45.6 186)" stroke="none" fill="#000" font-family="Arial" font-size="12" text-anchor="end"><tspan>60</tspan></text></g><g fill="none" color="#000" stroke="currentColor"><path stroke="#000" d="M53.9 100.1h9m552.1 0h-9"/><text transform="translate(45.6 104)" stroke="none" fill="#000" font-family="Arial" font-size="12" text-anchor="end"><tspan>80</tspan></text></g><g fill="none" color="#000" stroke="currentColor"><path stroke="#000" d="M53.9 18.1h9m552.1 0h-9"/><text transform="translate(45.6 22)" stroke="none" fill="#000" font-family="Arial" font-size="12" text-anchor="end"><tspan>100</tspan></text></g><g fill="none" color="#000" stroke="currentColor"><path stroke="#000" d="M81.3 428v-9m0-400.9v9"/><text transform="translate(81.3 449.9)" stroke="none" fill="#000" font-family="Arial" font-size="12" text-anchor="middle"><tspan>1x10</tspan><tspan font-size="9.6" dy="-6">6</tspan></text></g><g fill="none" color="#000" stroke="currentColor"><path stroke="#000" d="M176.7 428v-9m0-400.9v9"/><text transform="translate(176.7 449.9)" stroke="none" fill="#000" font-family="Arial" font-size="12" text-anchor="middle"><tspan>2x10</tspan><tspan font-size="9.6" dy="-6">6</tspan></text></g><g fill="none" color="#000" stroke="currentColor"><path stroke="#000" d="M272.2 428v-9m0-400.9v9"/><text transform="translate(272.2 449.9)" stroke="none" fill="#000" font-family="Arial" font-size="12" text-anchor="middle"><tspan>3x10</tspan><tspan font-size="9.6" dy="-6">6</tspan></text></g><g fill="none" color="#000" stroke="currentColor"><path stroke="#000" d="M367.6 428v-9m0-400.9v9"/><text transform="translate(367.6 449.9)" stroke="none" fill="#000" font-family="Arial" font-size="12" text-anchor="middle"><tspan>4x10</tspan><tspan font-size="9.6" dy="-6">6</tspan></text></g><g fill="none" color="#000" stroke="currentColor"><path stroke="#000" d="M463.1 428v-9m0-400.9v9"/><text transform="translate(463.1 449.9)" stroke="none" fill="#000" font-family="Arial" font-size="12" text-anchor="middle"><tspan>5x10</tspan><tspan font-size="9.6" dy="-6">6</tspan></text></g><g fill="none" color="#000" stroke="currentColor"><path stroke="#000" d="M558.5 428v-9m0-400.9v9"/><text transform="translate(558.5 449.9)" stroke="none" fill="#000" font-family="Arial" font-size="12" text-anchor="middle"><tspan>6x10</tspan><tspan font-size="9.6" dy="-6">6</tspan></text></g><path stroke="#000" d="M53.9 18.1V428H615V18.1H53.9z" fill="none" color="#000"/><text transform="translate(275.6 467.9)" stroke="none" fill="#000" font-family="Arial" font-size="12" text-anchor="end" color="#000"><tspan>pages+cached+noexternal+nosvg</tspan></text><g stroke="none" shape-rendering="geometricPrecision" fill="#9400D3" fill-opacity=".5" color="#000"><path d="M283.9 468.5h42.2v-9h-42.2zM312.9 428h302.2V18H312.9z"/></g><text transform="translate(275.6 485.9)" stroke="none" fill="#000" font-family="Arial" font-size="12" text-anchor="end" color="#000"><tspan>pages+cached+noexternal+noimg</tspan></text><g stroke="none" shape-rendering="crispEdges" fill="#009E73" fill-opacity=".5" color="#000"><path d="M283.9 486.5h42.2v-9h-42.2zM53.9 428H313V18H53.9z"/></g><text transform="translate(575.1 467.9)" stroke="none" fill="#000" font-family="Arial" font-size="12" text-anchor="end" color="#000"><tspan>score p10=2731008</tspan></text><path stroke="#56B4E9" d="M583.4 464h42.2m-379.1-36V407.5" fill="none" color="#000"/><g><text transform="translate(575.1 485.9)" stroke="none" fill="#000" font-family="Arial" font-size="12" text-anchor="end" color="#000"><tspan>score median=4096000</tspan></text><path stroke="#E69F00" d="M583.4 482h42.2m-248.8-54V407.5" fill="none" color="#000"/></g><g fill="none" color="#000" stroke="currentColor"><path stroke="#000" d="M53.9 18.1V428H615V18.1H53.9z"/></g></svg>

<?xml version="1.0" encoding="utf-8"  standalone="no"?>
<svg 
 width="640" height="500"
 viewBox="0 0 640 500"
 xmlns="http://www.w3.org/2000/svg"
 xmlns:xlink="http://www.w3.org/1999/xlink"
>

<title>Gnuplot</title>
<desc>Produced by GNUPLOT 5.4 patchlevel 0 </desc>

<g id="gnuplot_canvas">

<rect x="0" y="0" width="640" height="500" fill="#ffffff"/>
<defs>

	<circle id='gpDot' r='0.5' stroke-width='0.5' stroke='currentColor'/>
	<path id='gpPt0' stroke-width='0.222' stroke='currentColor' d='M-1,0 h2 M0,-1 v2'/>
	<path id='gpPt1' stroke-width='0.222' stroke='currentColor' d='M-1,-1 L1,1 M1,-1 L-1,1'/>
	<path id='gpPt2' stroke-width='0.222' stroke='currentColor' d='M-1,0 L1,0 M0,-1 L0,1 M-1,-1 L1,1 M-1,1 L1,-1'/>
	<rect id='gpPt3' stroke-width='0.222' stroke='currentColor' x='-1' y='-1' width='2' height='2'/>
	<rect id='gpPt4' stroke-width='0.222' stroke='currentColor' fill='currentColor' x='-1' y='-1' width='2' height='2'/>
	<circle id='gpPt5' stroke-width='0.222' stroke='currentColor' cx='0' cy='0' r='1'/>
	<use xlink:href='#gpPt5' id='gpPt6' fill='currentColor' stroke='none'/>
	<path id='gpPt7' stroke-width='0.222' stroke='currentColor' d='M0,-1.33 L-1.33,0.67 L1.33,0.67 z'/>
	<use xlink:href='#gpPt7' id='gpPt8' fill='currentColor' stroke='none'/>
	<use xlink:href='#gpPt7' id='gpPt9' stroke='currentColor' transform='rotate(180)'/>
	<use xlink:href='#gpPt9' id='gpPt10' fill='currentColor' stroke='none'/>
	<use xlink:href='#gpPt3' id='gpPt11' stroke='currentColor' transform='rotate(45)'/>
	<use xlink:href='#gpPt11' id='gpPt12' fill='currentColor' stroke='none'/>
	<path id='gpPt13' stroke-width='0.222' stroke='currentColor' d='M0,1.330 L1.265,0.411 L0.782,-1.067 L-0.782,-1.076 L-1.265,0.411 z'/>
	<use xlink:href='#gpPt13' id='gpPt14' fill='currentColor' stroke='none'/>
	<filter id='textbox' filterUnits='objectBoundingBox' x='0' y='0' height='1' width='1'>
	  <feFlood flood-color='#FFFFFF' flood-opacity='1' result='bgnd'/>
	  <feComposite in='SourceGraphic' in2='bgnd' operator='atop'/>
	</filter>
	<filter id='greybox' filterUnits='objectBoundingBox' x='0' y='0' height='1' width='1'>
	  <feFlood flood-color='lightgrey' flood-opacity='1' result='grey'/>
	  <feComposite in='SourceGraphic' in2='grey' operator='atop'/>
	</filter>
</defs>
<g fill="none" color="#FFFFFF" stroke="black" stroke-width="1.00" stroke-linecap="butt" stroke-linejoin="miter">
</g>
<g fill="none" color="black" stroke="currentColor" stroke-width="1.00" stroke-linecap="butt" stroke-linejoin="miter">
	<path stroke='black'  d='M53.9,428.0 L62.9,428.0 M615.0,428.0 L606.0,428.0  '/>	<g transform="translate(45.6,431.9)" stroke="none" fill="black" font-family="Arial" font-size="12.00"  text-anchor="end">
		<text><tspan font-family="Arial" > 0</tspan></text>
	</g>
</g>
<g fill="none" color="black" stroke="currentColor" stroke-width="1.00" stroke-linecap="butt" stroke-linejoin="miter">
	<path stroke='black'  d='M53.9,346.0 L62.9,346.0 M615.0,346.0 L606.0,346.0  '/>	<g transform="translate(45.6,349.9)" stroke="none" fill="black" font-family="Arial" font-size="12.00"  text-anchor="end">
		<text><tspan font-family="Arial" > 20</tspan></text>
	</g>
</g>
<g fill="none" color="black" stroke="currentColor" stroke-width="1.00" stroke-linecap="butt" stroke-linejoin="miter">
	<path stroke='black'  d='M53.9,264.0 L62.9,264.0 M615.0,264.0 L606.0,264.0  '/>	<g transform="translate(45.6,267.9)" stroke="none" fill="black" font-family="Arial" font-size="12.00"  text-anchor="end">
		<text><tspan font-family="Arial" > 40</tspan></text>
	</g>
</g>
<g fill="none" color="black" stroke="currentColor" stroke-width="1.00" stroke-linecap="butt" stroke-linejoin="miter">
	<path stroke='black'  d='M53.9,182.1 L62.9,182.1 M615.0,182.1 L606.0,182.1  '/>	<g transform="translate(45.6,186.0)" stroke="none" fill="black" font-family="Arial" font-size="12.00"  text-anchor="end">
		<text><tspan font-family="Arial" > 60</tspan></text>
	</g>
</g>
<g fill="none" color="black" stroke="currentColor" stroke-width="1.00" stroke-linecap="butt" stroke-linejoin="miter">
	<path stroke='black'  d='M53.9,100.1 L62.9,100.1 M615.0,100.1 L606.0,100.1  '/>	<g transform="translate(45.6,104.0)" stroke="none" fill="black" font-family="Arial" font-size="12.00"  text-anchor="end">
		<text><tspan font-family="Arial" > 80</tspan></text>
	</g>
</g>
<g fill="none" color="black" stroke="currentColor" stroke-width="1.00" stroke-linecap="butt" stroke-linejoin="miter">
	<path stroke='black'  d='M53.9,18.1 L62.9,18.1 M615.0,18.1 L606.0,18.1  '/>	<g transform="translate(45.6,22.0)" stroke="none" fill="black" font-family="Arial" font-size="12.00"  text-anchor="end">
		<text><tspan font-family="Arial" > 100</tspan></text>
	</g>
</g>
<g fill="none" color="black" stroke="currentColor" stroke-width="1.00" stroke-linecap="butt" stroke-linejoin="miter">
	<path stroke='black'  d='M81.3,428.0 L81.3,419.0 M81.3,18.1 L81.3,27.1  '/>	<g transform="translate(81.3,449.9)" stroke="none" fill="black" font-family="Arial" font-size="12.00"  text-anchor="middle">
		<text><tspan font-family="Arial" > 1x10</tspan><tspan font-family="Arial"  font-size="9.6" dy="-6.00px">6</tspan><tspan font-size="12.0" dy="6.00"></tspan></text>
	</g>
</g>
<g fill="none" color="black" stroke="currentColor" stroke-width="1.00" stroke-linecap="butt" stroke-linejoin="miter">
	<path stroke='black'  d='M176.7,428.0 L176.7,419.0 M176.7,18.1 L176.7,27.1  '/>	<g transform="translate(176.7,449.9)" stroke="none" fill="black" font-family="Arial" font-size="12.00"  text-anchor="middle">
		<text><tspan font-family="Arial" > 2x10</tspan><tspan font-family="Arial"  font-size="9.6" dy="-6.00px">6</tspan><tspan font-size="12.0" dy="6.00"></tspan></text>
	</g>
</g>
<g fill="none" color="black" stroke="currentColor" stroke-width="1.00" stroke-linecap="butt" stroke-linejoin="miter">
	<path stroke='black'  d='M272.2,428.0 L272.2,419.0 M272.2,18.1 L272.2,27.1  '/>	<g transform="translate(272.2,449.9)" stroke="none" fill="black" font-family="Arial" font-size="12.00"  text-anchor="middle">
		<text><tspan font-family="Arial" > 3x10</tspan><tspan font-family="Arial"  font-size="9.6" dy="-6.00px">6</tspan><tspan font-size="12.0" dy="6.00"></tspan></text>
	</g>
</g>
<g fill="none" color="black" stroke="currentColor" stroke-width="1.00" stroke-linecap="butt" stroke-linejoin="miter">
	<path stroke='black'  d='M367.6,428.0 L367.6,419.0 M367.6,18.1 L367.6,27.1  '/>	<g transform="translate(367.6,449.9)" stroke="none" fill="black" font-family="Arial" font-size="12.00"  text-anchor="middle">
		<text><tspan font-family="Arial" > 4x10</tspan><tspan font-family="Arial"  font-size="9.6" dy="-6.00px">6</tspan><tspan font-size="12.0" dy="6.00"></tspan></text>
	</g>
</g>
<g fill="none" color="black" stroke="currentColor" stroke-width="1.00" stroke-linecap="butt" stroke-linejoin="miter">
	<path stroke='black'  d='M463.1,428.0 L463.1,419.0 M463.1,18.1 L463.1,27.1  '/>	<g transform="translate(463.1,449.9)" stroke="none" fill="black" font-family="Arial" font-size="12.00"  text-anchor="middle">
		<text><tspan font-family="Arial" > 5x10</tspan><tspan font-family="Arial"  font-size="9.6" dy="-6.00px">6</tspan><tspan font-size="12.0" dy="6.00"></tspan></text>
	</g>
</g>
<g fill="none" color="black" stroke="currentColor" stroke-width="1.00" stroke-linecap="butt" stroke-linejoin="miter">
	<path stroke='black'  d='M558.5,428.0 L558.5,419.0 M558.5,18.1 L558.5,27.1  '/>	<g transform="translate(558.5,449.9)" stroke="none" fill="black" font-family="Arial" font-size="12.00"  text-anchor="middle">
		<text><tspan font-family="Arial" > 6x10</tspan><tspan font-family="Arial"  font-size="9.6" dy="-6.00px">6</tspan><tspan font-size="12.0" dy="6.00"></tspan></text>
	</g>
</g>
<g fill="none" color="black" stroke="currentColor" stroke-width="1.00" stroke-linecap="butt" stroke-linejoin="miter">
</g>
<g fill="none" color="black" stroke="currentColor" stroke-width="1.00" stroke-linecap="butt" stroke-linejoin="miter">
	<path stroke='black'  d='M53.9,18.1 L53.9,428.0 L615.0,428.0 L615.0,18.1 L53.9,18.1 Z  '/></g>
<g fill="none" color="black" stroke="currentColor" stroke-width="1.00" stroke-linecap="butt" stroke-linejoin="miter">
</g>
	<g id="gnuplot_plot_1" ><title>pages+cached+noexternal+nosvg</title>
<g fill="none" color="black" stroke="currentColor" stroke-width="1.00" stroke-linecap="butt" stroke-linejoin="miter">
	<g transform="translate(275.6,467.9)" stroke="none" fill="black" font-family="Arial" font-size="12.00"  text-anchor="end">
		<text><tspan font-family="Arial" >pages+cached+noexternal+nosvg</tspan></text>
	</g>
</g>
<g fill="none" color="black" stroke="currentColor" stroke-width="1.00" stroke-linecap="butt" stroke-linejoin="miter">
	<g stroke='none' shape-rendering='geometricPrecision'>
		<polygon fill = 'rgb(148,   0, 211)' fill-opacity = '0.500000' points = '283.9,468.5 326.1,468.5 326.1,459.5 283.9,459.5 '/>
		<polygon fill = 'rgb(148,   0, 211)' fill-opacity = '0.500000' points = '312.9,428.0 615.1,428.0 615.1,18.0 312.9,18.0 '/>
	</g>
</g>
	</g>
	<g id="gnuplot_plot_2" ><title>pages+cached+noexternal+noimg</title>
<g fill="none" color="black" stroke="currentColor" stroke-width="1.00" stroke-linecap="butt" stroke-linejoin="miter">
	<g transform="translate(275.6,485.9)" stroke="none" fill="black" font-family="Arial" font-size="12.00"  text-anchor="end">
		<text><tspan font-family="Arial" >pages+cached+noexternal+noimg</tspan></text>
	</g>
</g>
<g fill="none" color="black" stroke="currentColor" stroke-width="1.00" stroke-linecap="butt" stroke-linejoin="miter">
	<g stroke='none' shape-rendering='crispEdges'>
		<polygon fill = 'rgb(  0, 158, 115)' fill-opacity = '0.500000' points = '283.9,486.5 326.1,486.5 326.1,477.5 283.9,477.5 '/>
		<polygon fill = 'rgb(  0, 158, 115)' fill-opacity = '0.500000' points = '53.9,428.0 313.0,428.0 313.0,18.0 53.9,18.0 '/>
	</g>
</g>
	</g>
	<g id="gnuplot_plot_3" ><title>score p10=2731008</title>
<g fill="none" color="black" stroke="currentColor" stroke-width="1.00" stroke-linecap="butt" stroke-linejoin="miter">
	<g transform="translate(575.1,467.9)" stroke="none" fill="black" font-family="Arial" font-size="12.00"  text-anchor="end">
		<text><tspan font-family="Arial" >score p10=2731008</tspan></text>
	</g>
</g>
<g fill="none" color="black" stroke="currentColor" stroke-width="1.00" stroke-linecap="butt" stroke-linejoin="miter">
	<path stroke='rgb( 86, 180, 233)'  d='M583.4,464.0 L625.6,464.0 M246.5,428.0 L246.5,427.8 L246.5,427.4 L246.5,427.0 L246.5,426.6 L246.5,426.1
		L246.5,425.7 L246.5,425.3 L246.5,424.9 L246.5,424.5 L246.5,424.1 L246.5,423.7 L246.5,423.2 L246.5,422.8
		L246.5,422.4 L246.5,422.0 L246.5,421.6 L246.5,421.2 L246.5,420.8 L246.5,420.3 L246.5,419.9 L246.5,419.5
		L246.5,419.1 L246.5,418.7 L246.5,418.3 L246.5,417.9 L246.5,417.4 L246.5,417.0 L246.5,416.6 L246.5,416.2
		L246.5,415.8 L246.5,415.4 L246.5,415.0 L246.5,414.5 L246.5,414.1 L246.5,413.7 L246.5,413.3 L246.5,412.9
		L246.5,412.5 L246.5,412.1 L246.5,411.6 L246.5,411.2 L246.5,410.8 L246.5,410.4 L246.5,410.0 L246.5,409.6
		L246.5,409.2 L246.5,408.7 L246.5,408.3 L246.5,407.9 L246.5,407.5  '/></g>
	</g>
	<g id="gnuplot_plot_4" ><title>score median=4096000</title>
<g fill="none" color="black" stroke="currentColor" stroke-width="1.00" stroke-linecap="butt" stroke-linejoin="miter">
	<g transform="translate(575.1,485.9)" stroke="none" fill="black" font-family="Arial" font-size="12.00"  text-anchor="end">
		<text><tspan font-family="Arial" >score median=4096000</tspan></text>
	</g>
</g>
<g fill="none" color="black" stroke="currentColor" stroke-width="1.00" stroke-linecap="butt" stroke-linejoin="miter">
	<path stroke='rgb(230, 159,   0)'  d='M583.4,482.0 L625.6,482.0 M376.8,428.0 L376.8,427.8 L376.8,427.4 L376.8,427.0 L376.8,426.6 L376.8,426.1
		L376.8,425.7 L376.8,425.3 L376.8,424.9 L376.8,424.5 L376.8,424.1 L376.8,423.7 L376.8,423.2 L376.8,422.8
		L376.8,422.4 L376.8,422.0 L376.8,421.6 L376.8,421.2 L376.8,420.8 L376.8,420.3 L376.8,419.9 L376.8,419.5
		L376.8,419.1 L376.8,418.7 L376.8,418.3 L376.8,417.9 L376.8,417.4 L376.8,417.0 L376.8,416.6 L376.8,416.2
		L376.8,415.8 L376.8,415.4 L376.8,415.0 L376.8,414.5 L376.8,414.1 L376.8,413.7 L376.8,413.3 L376.8,412.9
		L376.8,412.5 L376.8,412.1 L376.8,411.6 L376.8,411.2 L376.8,410.8 L376.8,410.4 L376.8,410.0 L376.8,409.6
		L376.8,409.2 L376.8,408.7 L376.8,408.3 L376.8,407.9 L376.8,407.5  '/></g>
	</g>
<g fill="none" color="#FFFFFF" stroke="rgb(230, 159,   0)" stroke-width="2.00" stroke-linecap="butt" stroke-linejoin="miter">
</g>
<g fill="none" color="black" stroke="currentColor" stroke-width="2.00" stroke-linecap="butt" stroke-linejoin="miter">
</g>
<g fill="none" color="black" stroke="black" stroke-width="1.00" stroke-linecap="butt" stroke-linejoin="miter">
</g>
<g fill="none" color="black" stroke="currentColor" stroke-width="1.00" stroke-linecap="butt" stroke-linejoin="miter">
	<path stroke='black'  d='M53.9,18.1 L53.9,428.0 L615.0,428.0 L615.0,18.1 L53.9,18.1 Z  '/></g>
<g fill="none" color="black" stroke="currentColor" stroke-width="1.00" stroke-linecap="butt" stroke-linejoin="miter">
</g>
</g>
</svg>
